X:859
T:Sportsman's Haunt, The
R:Strathspey
B:The Athole Collection
M:C|
L:1/8
K:B Minor
F|:D<B, B,>d B<F F>B|A<E E>D C<A,A,<F|D<B, B,>d B<F F>B|
A>FE>C B,/B,/B, Fz:|
|:e/d/c/B/ f>B d>f b<f|a>f e<a c<A a>c|1 e/d/c/B/ f>B d>fb>f|a>fe>c B/B/B f2:|2
e/d/c/B/ f<d e<cd<B|A<F E>C B,/B,/B, F2||

